; generated by Slic3r 1.1.7 on 2016-06-16 at 13:38:18

; Profile for Sharebot !

; perimeters extrusion width = 0.40mm
; infill extrusion width = 0.60mm
; solid infill extrusion width = 0.50mm
; top infill extrusion width = 0.40mm

G21 ; set units to millimeters
M107
M104 S230 ; set temperature
G28 ;Home all axis
T0
G1 Z10 F1000
G92 E0
M117 Printing...
M109 S230 ; wait for temperature to be reached
G90 ; use absolute coordinates
G92 E0
M82 ; use absolute distances for extrusion
G1 Z0.300 F6000.000
G1 F9000.000 E-0.60000
G92 E0
G1 X85.243 Y70.349 F6000.000
G1 E0.60000 F9000.000
G1 X86.341 Y69.055 E0.71658 F960.000
G1 X88.500 Y68.348 E0.87261
G1 X136.500 Y68.348 E4.16920
G1 X138.151 Y68.743 E4.28578
G1 X139.445 Y69.841 E4.40237 F960.000
G1 X140.152 Y72.000 E4.55839
G1 X140.152 Y113.000 E7.37423
G1 X139.757 Y114.651 E7.49081
G1 X138.659 Y115.945 E7.60740
G1 X136.500 Y116.652 E7.76342
G1 X88.500 Y116.652 E11.06001
G1 X86.849 Y116.257 E11.17660
G1 X85.555 Y115.159 E11.29318
G1 X84.848 Y113.000 E11.44920
G1 X84.848 Y72.000 E14.26504
G1 X85.230 Y70.403 E14.37781
G1 X85.791 Y70.492 F6000.000
G1 X86.873 Y69.360 E14.48535 F960.000
G1 X88.500 Y68.899 E14.60149
G1 X136.500 Y68.899 E17.89808
G1 X138.012 Y69.292 E18.00539
G1 X139.140 Y70.373 E18.11269 F960.000
G1 X139.601 Y72.000 E18.22883
G1 X139.601 Y113.000 E21.04467
G1 X139.208 Y114.512 E21.15197
G1 X138.127 Y115.640 E21.25927
G1 X136.500 Y116.101 E21.37541
G1 X88.500 Y116.101 E24.67201
G1 X86.988 Y115.708 E24.77931
G1 X85.860 Y114.627 E24.88661
G1 X85.399 Y113.000 E25.00275
G1 X85.399 Y72.000 E27.81859
G1 X85.777 Y70.545 E27.92181
G1 X86.339 Y70.650 F6000.000
G1 X87.397 Y69.700 E28.01948 F960.000
G1 X88.500 Y69.449 E28.09714
G1 X136.500 Y69.449 E31.39374
G1 X137.859 Y69.842 E31.49087
G1 X138.800 Y70.897 E31.58801 F960.000
G1 X139.051 Y72.000 E31.66567
G1 X139.051 Y113.000 E34.48151
G1 X138.658 Y114.359 E34.57865
G1 X137.603 Y115.300 E34.67579
G1 X136.500 Y115.551 E34.75345
G1 X88.500 Y115.551 E38.05004
G1 X87.141 Y115.158 E38.14718
G1 X86.200 Y114.103 E38.24432
G1 X85.949 Y113.000 E38.32198
G1 X85.949 Y72.000 E41.13782
G1 X86.324 Y70.703 E41.23052
G1 F9000.000 E40.63052
G92 E0
G1 X135.649 Y112.149 F6000.000
G1 E0.60000 F9000.000
G1 X89.351 Y112.149 E3.77975 F960.000
G1 X89.351 Y72.851 E6.47875
G1 X135.649 Y72.851 E9.65850
G1 X135.649 Y112.094 E12.35369
G1 X136.200 Y112.700 F6000.000
G1 X88.800 Y112.700 E15.60908 F960.000
G1 X88.800 Y72.300 E18.38371
G1 X136.200 Y72.300 E21.63910
G1 X136.200 Y112.644 E24.40992
G1 X135.880 Y112.515 F6000.000
G1 F9000.000 E23.80992
G92 E0
G1 X135.230 Y73.230 F6000.000
G1 E0.60000 F9000.000
G1 X135.270 Y73.270 E0.60389 F960.000
G1 X135.270 Y74.055 E0.65780
G1 X134.445 Y73.230 E0.73794
G1 X133.660 Y73.230 E0.79185
G1 X135.270 Y74.840 E0.94824
G1 X135.270 Y75.625 E1.00215
G1 X132.875 Y73.230 E1.23479
G1 X132.090 Y73.230 E1.28871
G1 X135.270 Y76.410 E1.59759
G1 X135.270 Y77.195 E1.65151
G1 X131.305 Y73.230 E2.03664
G1 X130.520 Y73.230 E2.09056
G1 X135.270 Y77.980 E2.55194
G1 X135.270 Y78.765 E2.60586
G1 X129.735 Y73.230 E3.14349
G1 X128.950 Y73.230 E3.19741
G1 X135.270 Y79.550 E3.81129
G1 X135.270 Y80.335 E3.86521
G1 X128.165 Y73.230 E4.55534
G1 X127.380 Y73.230 E4.60926
G1 X135.270 Y81.120 E5.37564
G1 X135.270 Y81.905 E5.42956
G1 X126.595 Y73.230 E6.27219
G1 X125.810 Y73.230 E6.32610
G1 X135.270 Y82.690 E7.24499
G1 X135.270 Y83.476 E7.29890
G1 X125.024 Y73.230 E8.29403
G1 X124.239 Y73.230 E8.34795
G1 X135.270 Y84.261 E9.41933
G1 X135.270 Y85.046 E9.47325
G1 X123.454 Y73.230 E10.62088
G1 X122.669 Y73.230 E10.67480
G1 X135.270 Y85.831 E11.89868
G1 X135.270 Y86.616 E11.95259
G1 X121.884 Y73.230 E13.25272
G1 X121.099 Y73.230 E13.30664
G1 X135.270 Y87.401 E14.68302
G1 X135.270 Y88.186 E14.73694
G1 X120.314 Y73.230 E16.18957
G1 X119.529 Y73.230 E16.24348
G1 X135.270 Y88.971 E17.77236
G1 X135.270 Y89.756 E17.82628
G1 X118.744 Y73.230 E19.43141
G1 X117.959 Y73.230 E19.48533
G1 X135.270 Y90.541 E21.16670
G1 X135.270 Y91.326 E21.22062
G1 X117.174 Y73.230 E22.97825
G1 X116.389 Y73.230 E23.03217
G1 X135.270 Y92.111 E24.86604
G1 X135.270 Y92.896 E24.91996
G1 X115.604 Y73.230 E26.83009
G1 X114.819 Y73.230 E26.88401
G1 X135.270 Y93.681 E28.87038
G1 X135.270 Y94.466 E28.92430
G1 X114.034 Y73.230 E30.98693
G1 X113.249 Y73.230 E31.04084
G1 X135.270 Y95.251 E33.17972
G1 X135.270 Y96.036 E33.23364
G1 X112.464 Y73.230 E35.44876
G1 X111.679 Y73.230 E35.50268
G1 X135.270 Y96.821 E37.79406
G1 X135.270 Y97.606 E37.84797
G1 X110.894 Y73.230 E40.21560
G1 X110.108 Y73.230 E40.26952
G1 X135.270 Y98.392 E42.71339
G1 X135.270 Y99.177 E42.76731
G1 X109.323 Y73.230 E45.28744
G1 X108.538 Y73.230 E45.34135
G1 X135.270 Y99.962 E47.93773
G1 X135.270 Y100.747 E47.99164
G1 X107.753 Y73.230 E50.66427
G1 X106.968 Y73.230 E50.71819
G1 X135.270 Y101.532 E53.46706
G1 X135.270 Y102.317 E53.52098
G1 X106.183 Y73.230 E56.34610
G1 X105.398 Y73.230 E56.40002
G1 X135.270 Y103.102 E59.30139
G1 X135.270 Y103.887 E59.35531
G1 X104.613 Y73.230 E62.33293
G1 X103.828 Y73.230 E62.38685
G1 X135.270 Y104.672 E65.44072
G1 X135.270 Y105.457 E65.49464
G1 X103.043 Y73.230 E68.62476
G1 X102.258 Y73.230 E68.67868
G1 X135.270 Y106.242 E71.88505
G1 X135.270 Y107.027 E71.93897
G1 X101.473 Y73.230 E75.22159
G1 X100.688 Y73.230 E75.27551
G1 X135.270 Y107.812 E78.63438
G1 X135.270 Y108.597 E78.68830
G1 X99.903 Y73.230 E82.12342
G1 X99.118 Y73.230 E82.17734
G1 X135.270 Y109.382 E85.68871
G1 X135.270 Y110.167 E85.74263
G1 X98.333 Y73.230 E89.33025
G1 X97.548 Y73.230 E89.38416
G1 X135.270 Y110.952 E93.04804
G1 X135.267 Y111.734 E93.10170
G1 X96.763 Y73.230 E96.84147
G1 X95.978 Y73.230 E96.89539
G1 X134.518 Y111.770 E100.63869
G1 X133.733 Y111.770 E100.69261
G1 X95.192 Y73.230 E104.43591
G1 X94.407 Y73.230 E104.48982
G1 X132.948 Y111.770 E108.23312
G1 X132.163 Y111.770 E108.28704
G1 X93.622 Y73.230 E112.03034
G1 X92.837 Y73.230 E112.08426
G1 X131.378 Y111.770 E115.82756
G1 X130.593 Y111.770 E115.88148
G1 X92.052 Y73.230 E119.62478
G1 X91.267 Y73.230 E119.67869
G1 X129.808 Y111.770 E123.42199
G1 X129.022 Y111.770 E123.47591
G1 X90.482 Y73.230 E127.21921
G1 X89.733 Y73.266 E127.27069
G1 X128.237 Y111.770 E131.01046
G1 X127.452 Y111.770 E131.06438
G1 X89.730 Y74.048 E134.72825
G1 X89.730 Y74.833 E134.78216
G1 X126.667 Y111.770 E138.36979
G1 X125.882 Y111.770 E138.42370
G1 X89.730 Y75.618 E141.93507
G1 X89.730 Y76.403 E141.98899
G1 X125.097 Y111.770 E145.42411
G1 X124.312 Y111.770 E145.47803
G1 X89.730 Y77.188 E148.83690
G1 X89.730 Y77.973 E148.89082
G1 X123.527 Y111.770 E152.17344
G1 X122.742 Y111.770 E152.22736
G1 X89.730 Y78.758 E155.43373
G1 X89.730 Y79.543 E155.48765
G1 X121.957 Y111.770 E158.61777
G1 X121.172 Y111.770 E158.67169
G1 X89.730 Y80.328 E161.72556
G1 X89.730 Y81.113 E161.77948
G1 X120.387 Y111.770 E164.75710
G1 X119.602 Y111.770 E164.81102
G1 X89.730 Y81.898 E167.71239
G1 X89.730 Y82.683 E167.76631
G1 X118.817 Y111.770 E170.59143
G1 X118.032 Y111.770 E170.64535
G1 X89.730 Y83.468 E173.39423
G1 X89.730 Y84.253 E173.44814
G1 X117.247 Y111.770 E176.12077
G1 X116.462 Y111.770 E176.17468
G1 X89.730 Y85.038 E178.77106
G1 X89.730 Y85.823 E178.82498
G1 X115.677 Y111.770 E181.34510
G1 X114.892 Y111.770 E181.39902
G1 X89.730 Y86.608 E183.84289
G1 X89.730 Y87.394 E183.89681
G1 X114.106 Y111.770 E186.26444
G1 X113.321 Y111.770 E186.31835
G1 X89.730 Y88.179 E188.60973
G1 X89.730 Y88.964 E188.66365
G1 X112.536 Y111.770 E190.87877
G1 X111.751 Y111.770 E190.93269
G1 X89.730 Y89.749 E193.07157
G1 X89.730 Y90.534 E193.12548
G1 X110.966 Y111.770 E195.18811
G1 X110.181 Y111.770 E195.24203
G1 X89.730 Y91.319 E197.22840
G1 X89.730 Y92.104 E197.28232
G1 X109.396 Y111.770 E199.19245
G1 X108.611 Y111.770 E199.24637
G1 X89.730 Y92.889 E201.08024
G1 X89.730 Y93.674 E201.13416
G1 X107.826 Y111.770 E202.89179
G1 X107.041 Y111.770 E202.94571
G1 X89.730 Y94.459 E204.62708
G1 X89.730 Y95.244 E204.68100
G1 X106.256 Y111.770 E206.28613
G1 X105.471 Y111.770 E206.34005
G1 X89.730 Y96.029 E207.86893
G1 X89.730 Y96.814 E207.92284
G1 X104.686 Y111.770 E209.37547
G1 X103.901 Y111.770 E209.42939
G1 X89.730 Y97.599 E210.80577
G1 X89.730 Y98.384 E210.85969
G1 X103.116 Y111.770 E212.15982
G1 X102.331 Y111.770 E212.21373
G1 X89.730 Y99.169 E213.43761
G1 X89.730 Y99.954 E213.49153
G1 X101.546 Y111.770 E214.63916
G1 X100.761 Y111.770 E214.69308
G1 X89.730 Y100.739 E215.76446
G1 X89.730 Y101.524 E215.81837
G1 X99.976 Y111.770 E216.81351
G1 X99.190 Y111.770 E216.86742
G1 X89.730 Y102.310 E217.78630
G1 X89.730 Y103.095 E217.84022
G1 X98.405 Y111.770 E218.68285
G1 X97.620 Y111.770 E218.73677
G1 X89.730 Y103.880 E219.50315
G1 X89.730 Y104.665 E219.55707
G1 X96.835 Y111.770 E220.24720
G1 X96.050 Y111.770 E220.30112
G1 X89.730 Y105.450 E220.91500
G1 X89.730 Y106.235 E220.96892
G1 X95.265 Y111.770 E221.50655
G1 X94.480 Y111.770 E221.56047
G1 X89.730 Y107.020 E222.02185
G1 X89.730 Y107.805 E222.07577
G1 X93.695 Y111.770 E222.46090
G1 X92.910 Y111.770 E222.51482
G1 X89.730 Y108.590 E222.82370
G1 X89.730 Y109.375 E222.87762
G1 X92.125 Y111.770 E223.11025
G1 X91.340 Y111.770 E223.16417
G1 X89.730 Y110.160 E223.32055
G1 X89.730 Y110.945 E223.37447
G1 X90.555 Y111.770 E223.45460
G1 X89.770 Y111.770 E223.50852
G1 X89.730 Y111.730 E223.51241
M104 S215 ; set temperature
G1 Z0.500 F6000.000
G1 F9000.000 E222.91241
G92 E0
G1 X135.906 Y112.406 F6000.000
G1 E0.60000 F9000.000
G1 X89.094 Y112.406 E2.13194 F2100.000
G1 X89.094 Y72.594 E3.43481
G1 X135.906 Y72.594 E4.96675
G1 X135.906 Y112.351 E6.26781
G1 X136.300 Y112.800 F6000.000
G1 X88.700 Y112.800 E7.82551 F1500.000
G1 X88.700 Y72.200 E9.15414
G1 X136.300 Y72.200 E10.71184
G1 X136.300 Y112.745 E12.03865
G1 X135.980 Y112.615 F6000.000
G1 X135.604 Y112.064 F6000.000
G1 X135.564 Y112.104 E12.04087 F3000.000
G1 X134.892 Y112.104 E12.06725
G1 X135.604 Y111.392 E12.10677
G1 X135.604 Y110.720 E12.13315
G1 X134.220 Y112.104 E12.20997
G1 X133.548 Y112.104 E12.23635
G1 X135.604 Y110.048 E12.35048
G1 X135.604 Y109.377 E12.37686
G1 X132.877 Y112.104 E12.52830
G1 X132.205 Y112.104 E12.55467
G1 X135.604 Y108.705 E12.74341
G1 X135.604 Y108.033 E12.76979
G1 X131.533 Y112.104 E12.99583
G1 X130.861 Y112.104 E13.02221
G1 X135.604 Y107.361 E13.28555
G1 X135.604 Y106.689 E13.31193
G1 X130.189 Y112.104 E13.61258
G1 X129.517 Y112.104 E13.63896
G1 X135.604 Y106.017 E13.97691
G1 X135.604 Y105.345 E14.00329
G1 X128.845 Y112.104 E14.37855
G1 X128.173 Y112.104 E14.40492
G1 X135.604 Y104.673 E14.81748
G1 X135.604 Y104.001 E14.84386
G1 X127.501 Y112.104 E15.29372
G1 X126.829 Y112.104 E15.32010
G1 X135.604 Y103.329 E15.80727
G1 X135.604 Y102.657 E15.83364
G1 X126.157 Y112.104 E16.35812
G1 X125.485 Y112.104 E16.38449
G1 X135.604 Y101.985 E16.94627
G1 X135.604 Y101.313 E16.97264
G1 X124.813 Y112.104 E17.57172
G1 X124.141 Y112.104 E17.59810
G1 X135.604 Y100.641 E18.23448
G1 X135.604 Y99.969 E18.26086
G1 X123.469 Y112.104 E18.93454
G1 X122.797 Y112.104 E18.96092
G1 X135.604 Y99.297 E19.67191
G1 X135.604 Y98.625 E19.69828
G1 X122.125 Y112.104 E20.44658
G1 X121.453 Y112.104 E20.47295
G1 X135.604 Y97.953 E21.25855
G1 X135.604 Y97.281 E21.28493
G1 X120.781 Y112.104 E22.10783
G1 X120.110 Y112.104 E22.13420
G1 X135.604 Y96.610 E22.99440
G1 X135.604 Y95.938 E23.02078
G1 X119.438 Y112.104 E23.91829
G1 X118.766 Y112.104 E23.94467
G1 X135.604 Y95.266 E24.87947
G1 X135.604 Y94.594 E24.90585
G1 X118.094 Y112.104 E25.87796
G1 X117.422 Y112.104 E25.90434
G1 X135.604 Y93.922 E26.91376
G1 X135.604 Y93.250 E26.94014
G1 X116.750 Y112.104 E27.98686
G1 X116.078 Y112.104 E28.01323
G1 X135.604 Y92.578 E29.09726
G1 X135.604 Y91.906 E29.12363
G1 X115.406 Y112.104 E30.24496
G1 X114.734 Y112.104 E30.27134
G1 X135.604 Y91.234 E31.42997
G1 X135.604 Y90.562 E31.45635
G1 X114.062 Y112.104 E32.65228
G1 X113.390 Y112.104 E32.67866
G1 X135.604 Y89.890 E33.91190
G1 X135.604 Y89.218 E33.93827
G1 X112.718 Y112.104 E35.20881
G1 X112.046 Y112.104 E35.23519
G1 X135.604 Y88.546 E36.54304
G1 X135.604 Y87.874 E36.56941
G1 X111.374 Y112.104 E37.91456
G1 X110.702 Y112.104 E37.94094
G1 X135.604 Y87.202 E39.32339
G1 X135.604 Y86.530 E39.34977
G1 X110.030 Y112.104 E40.76953
G1 X109.358 Y112.104 E40.79590
G1 X135.604 Y85.858 E42.25296
G1 X135.604 Y85.186 E42.27934
G1 X108.686 Y112.104 E43.77370
G1 X108.014 Y112.104 E43.80008
G1 X135.604 Y84.514 E45.33174
G1 X135.604 Y83.843 E45.35812
G1 X107.343 Y112.104 E46.92709
G1 X106.671 Y112.104 E46.95347
G1 X135.604 Y83.171 E48.55974
G1 X135.604 Y82.499 E48.58612
G1 X105.999 Y112.104 E50.22970
G1 X105.327 Y112.104 E50.25607
G1 X135.604 Y81.827 E51.93695
G1 X135.604 Y81.155 E51.96333
G1 X104.655 Y112.104 E53.68152
G1 X103.983 Y112.104 E53.70789
G1 X135.604 Y80.483 E55.46338
G1 X135.604 Y79.811 E55.48976
G1 X103.311 Y112.104 E57.28255
G1 X102.639 Y112.104 E57.30893
G1 X135.604 Y79.139 E59.13902
G1 X135.604 Y78.467 E59.16540
G1 X101.967 Y112.104 E61.03280
G1 X101.295 Y112.104 E61.05917
G1 X135.604 Y77.795 E62.96387
G1 X135.604 Y77.123 E62.99025
G1 X100.623 Y112.104 E64.93226
G1 X99.951 Y112.104 E64.95863
G1 X135.604 Y76.451 E66.93794
G1 X135.604 Y75.779 E66.96432
G1 X99.279 Y112.104 E68.98093
G1 X98.607 Y112.104 E69.00731
G1 X135.604 Y75.107 E71.06122
G1 X135.604 Y74.435 E71.08760
G1 X97.935 Y112.104 E73.17882
G1 X97.263 Y112.104 E73.20520
G1 X135.604 Y73.763 E75.33372
G1 X135.604 Y73.091 E75.36010
G1 X96.591 Y112.104 E77.52593
G1 X95.919 Y112.104 E77.55230
G1 X135.128 Y72.896 E79.72899
G1 X134.456 Y72.896 E79.75537
G1 X95.247 Y112.104 E81.93206
G1 X94.576 Y112.104 E81.95844
G1 X133.784 Y72.896 E84.13513
G1 X133.112 Y72.896 E84.16151
G1 X93.904 Y112.104 E86.33820
G1 X93.232 Y112.104 E86.36458
G1 X132.440 Y72.896 E88.54127
G1 X131.768 Y72.896 E88.56765
G1 X92.560 Y112.104 E90.74434
G1 X91.888 Y112.104 E90.77071
G1 X131.096 Y72.896 E92.94741
G1 X130.424 Y72.896 E92.97378
G1 X91.216 Y112.104 E95.15047
G1 X90.544 Y112.104 E95.17685
G1 X129.753 Y72.896 E97.35354
G1 X129.081 Y72.896 E97.37992
G1 X89.872 Y112.104 E99.55661
G1 X89.396 Y111.909 E99.57682
G1 X128.409 Y72.896 E101.74265
G1 X127.737 Y72.896 E101.76903
G1 X89.396 Y111.237 E103.89755
G1 X89.396 Y110.565 E103.92393
G1 X127.065 Y72.896 E106.01515
G1 X126.393 Y72.896 E106.04152
G1 X89.396 Y109.893 E108.09544
G1 X89.396 Y109.221 E108.12182
G1 X125.721 Y72.896 E110.13843
G1 X125.049 Y72.896 E110.16480
G1 X89.396 Y108.549 E112.14411
G1 X89.396 Y107.877 E112.17049
G1 X124.377 Y72.896 E114.11250
G1 X123.705 Y72.896 E114.13887
G1 X89.396 Y107.205 E116.04357
G1 X89.396 Y106.533 E116.06995
G1 X123.033 Y72.896 E117.93735
G1 X122.361 Y72.896 E117.96373
G1 X89.396 Y105.861 E119.79382
G1 X89.396 Y105.189 E119.82020
G1 X121.689 Y72.896 E121.61299
G1 X121.017 Y72.896 E121.63937
G1 X89.396 Y104.517 E123.39485
G1 X89.396 Y103.845 E123.42123
G1 X120.345 Y72.896 E125.13941
G1 X119.673 Y72.896 E125.16579
G1 X89.396 Y103.173 E126.84667
G1 X89.396 Y102.501 E126.87305
G1 X119.001 Y72.896 E128.51663
G1 X118.329 Y72.896 E128.54300
G1 X89.396 Y101.829 E130.14928
G1 X89.396 Y101.157 E130.17565
G1 X117.657 Y72.896 E131.74462
G1 X116.986 Y72.896 E131.77100
G1 X89.396 Y100.486 E133.30267
G1 X89.396 Y99.814 E133.32904
G1 X116.314 Y72.896 E134.82341
G1 X115.642 Y72.896 E134.84978
G1 X89.396 Y99.142 E136.30684
G1 X89.396 Y98.470 E136.33322
G1 X114.970 Y72.896 E137.75297
G1 X114.298 Y72.896 E137.77935
G1 X89.396 Y97.798 E139.16180
G1 X89.396 Y97.126 E139.18818
G1 X113.626 Y72.896 E140.53333
G1 X112.954 Y72.896 E140.55971
G1 X89.396 Y96.454 E141.86755
G1 X89.396 Y95.782 E141.89393
G1 X112.282 Y72.896 E143.16447
G1 X111.610 Y72.896 E143.19085
G1 X89.396 Y95.110 E144.42408
G1 X89.396 Y94.438 E144.45046
G1 X110.938 Y72.896 E145.64640
G1 X110.266 Y72.896 E145.67277
G1 X89.396 Y93.766 E146.83140
G1 X89.396 Y93.094 E146.85778
G1 X109.594 Y72.896 E147.97911
G1 X108.922 Y72.896 E148.00549
G1 X89.396 Y92.422 E149.08951
G1 X89.396 Y91.750 E149.11589
G1 X108.250 Y72.896 E150.16261
G1 X107.578 Y72.896 E150.18898
G1 X89.396 Y91.078 E151.19840
G1 X89.396 Y90.406 E151.22478
G1 X106.906 Y72.896 E152.19689
G1 X106.234 Y72.896 E152.22327
G1 X89.396 Y89.734 E153.15808
G1 X89.396 Y89.062 E153.18445
G1 X105.562 Y72.896 E154.08196
